X:68
T:Gusty's Frolics (sj)
B:NFID.058a
068gusty_f
S:?
L:1/8
M:9/8
R:slip jig
Q:280
K:D
A,DD A,DD FEF|A,DD DFA GE=C|A,DD DCD FDF|GAG E=CE GE^C|
A,DD DCD FEF|A,DD DFA GE=C|A,DD DCD FEF|GAG E=CE GFE||
%B
FDF ABG A2G|FDF ABc dAG|FDF ABG A2F|GFG E=CE GFE|
FDF ABG A2G|FDF ABc dAG|FED dcB A2F|GFG E=CE GFE||
%C
Add Add fdf|Add dfa gec|Add Add fdf|gag ece gec|
Add Add fdf|Add dfa gec|Add dcd fdf|gag ece gfe||
%D
dfd cec d2B|AFD DED AFD|GBd d=cB cBc|1 GEB, =CEF GED:|\
[2 GEB, =CEF GE^C||

%%%

